packages/katcn/src/icons/svg/move-solid.svg

<svg width="24" height="25" viewBox="0 0 24 25" fill="none" xmlns="http://www.w3.org/2000/svg">
<path d="M22.2 11.4538L19.1 9.25129C18.5 8.85084 17.8 8.85084 17.2 9.15118C16.6 9.45152 16.2 10.0522 16.2 10.753V11.9544H13V8.65061H14.2C14.9 8.65061 15.5 8.25016 15.8 7.64947C16.1 7.04879 16.1 6.34799 15.7 5.74731L13.5 2.64379C12.8 1.74276 11.2 1.74276 10.6 2.64379L8.3 5.74731C7.9 6.34799 7.9 7.04879 8.2 7.64947C8.5 8.25016 9.1 8.65061 9.8 8.65061H11V11.9544H7.7V10.6529C7.7 9.95209 7.3 9.35141 6.7 9.05107C6.1 8.75072 5.4 8.85084 4.9 9.25129L1.8 11.4538C1.3 11.7541 1 12.3548 1 12.9555C1 13.5562 1.3 14.0568 1.8 14.4572L4.9 16.6597C5.2 16.8599 5.6 16.9601 5.9 16.9601C6.2 16.9601 6.5 16.8599 6.7 16.7598C7.3 16.4595 7.7 15.8588 7.7 15.158V13.9566H11V17.2604H9.8C9.1 17.2604 8.5 17.6608 8.2 18.2615C7.9 18.8622 7.9 19.563 8.3 20.1637L10.5 23.2672C10.9 23.6677 11.4 23.968 12 23.968C12.6 23.968 13.1 23.6677 13.5 23.1671L15.7 20.0636C16.1 19.4629 16.1 18.7621 15.8 18.1614C15.5 17.5607 14.9 17.1603 14.2 17.1603H13V13.9566H16.3V15.158C16.3 15.8588 16.7 16.4595 17.3 16.7598C17.6 16.8599 17.8 16.9601 18.1 16.9601C18.5 16.9601 18.8 16.8599 19.1 16.6597L22.2 14.4572C22.7 14.1569 23 13.5562 23 12.9555C23 12.3548 22.7 11.7541 22.2 11.4538Z" fill="black"/>
</svg>

<svg xmlns="http://www.w3.org/2000/svg" fill="none" viewBox="0 0 24 25"><path fill="#000" d="M22.2 11.454 19.1 9.25c-.6-.4-1.3-.4-1.9-.1s-1 .901-1 1.602v1.201H13V8.651h1.2c.7 0 1.3-.4 1.6-1.002.3-.6.3-1.301-.1-1.902l-2.2-3.103c-.7-.901-2.3-.901-2.9 0L8.3 5.747c-.4.601-.4 1.302-.1 1.902.3.601.9 1.002 1.6 1.002H11v3.303H7.7v-1.301c0-.7-.4-1.302-1-1.602s-1.3-.2-1.8.2l-3.1 2.203c-.5.3-.8.9-.8 1.502 0 .6.3 1.1.8 1.501l3.1 2.203c.3.2.7.3 1 .3s.6-.1.8-.2c.6-.3 1-.901 1-1.602v-1.201H11v3.303H9.8c-.7 0-1.3.4-1.6 1.002-.3.6-.3 1.301.1 1.902l2.2 3.103c.4.4.9.701 1.5.701s1.1-.3 1.5-.8l2.2-3.104c.4-.601.4-1.302.1-1.903-.3-.6-.9-1-1.6-1H13v-3.204h3.3v1.201c0 .7.4 1.301 1 1.602.3.1.5.2.8.2.4 0 .7-.1 1-.3l3.1-2.203c.5-.3.8-.9.8-1.501s-.3-1.202-.8-1.502"/></svg>
